X:1
T:Mariä Wiegenlied
T:Mariä Wiegenlied
T:Der Hirten Lied am Krippelein *
T:Max Reger  Op. 76 Nr. 52
T:Martin Boelitz
C:Max Reger  Op. 76 Nr. 52
Z:Martin Boelitz
%%score 1 { ( 2 4 ) | 3 }
L:1/8
Q:1/4=80
M:6/8
K:D
V:1 treble nm="Gesang"
V:2 treble nm="Klavier"
V:4 treble 
V:3 bass 
V:1
"^Allegretto" z6 | z2 z z2!p! F | A2 F D2 F | (A2 B) A2!<(! A | E2!<)! F!>(! (G>F) E | %5
w: |Ma-|ri- a sitzt am|Ro- sen- hag und|wiegt ihr Je- * sus-|
w: |*) Schlaf'|wohl, du Him- mels-|kna- * be, schlaf'|ein, mein Je- * sus-|
 F3!>)! z2 z |!pp! B2 F ^D2 E | (F2 ^G) F2 z |[M:9/8]!<(! A2 A ^G2!<)! F!>(! (^E>F) ^G!>)! | %9
w: kind,|durch die Blät- ter|lei- * se|weht der war- me Som- * mer-|
w: kind!|Eng- lein fä- cheln|lei- * se|dich zur Ru- he sanft * und|
[M:6/8] F3 z z2 | z6 | z2!p! F D2 F | (A2 B) A2 z |!<(! E2 F (G>!<)!F)!>(! E | F2 B A2!>)! z | %15
w: wind.||Zu ih- ren|Fü- * ssen|singt ein bun- * tes|Vö- ge- lein:|
w: lind.||O heil'- ger|Kna- be, *|dei- ne Äug- * lein|schlie- sse zu:|
!pp! d6 | c3 F3 | (B6 | A3) D3 | z6 |"^dolciss."[Q:1/4=65]"^T""^dim." (G6 |!>(! F3) E3!>)! | %22
w: Schlaf',|Kind- lein,|sü-|* sse,||schlaf'|_ nun|
w: Schlaf',|Kind- lein,|sü-|* sse,||schlaf'|_ nun|
 D3[Q:1/4=80]"_a tempo"[Q:1/4=80]"^a tempo" z2 z | z6 |!p! (A2 F) D2 F | (A2 B) A2 z | %26
w: ein!||Hold * ist dein|Lä- * cheln,|
w: ein!||Neig' dein mü- des|Köpf- * chen,|
!<(! E2 F!<)! (G>F) E |!>(! F2 B!>)! A3 | _B2 =F D2 _E | (=F2 G) F3 |!<(! A2 A G2!<)! G | %31
w: hol- der dei- * nes|Schlum- mers Lust,|leg dein mü- des|Köp- * chen|fest an dei- ner|
w: schläfst du, ruht * die|lau- te Welt,|Got- tes Au- ge|wa- * chet,|blickt auf dich vom|
!>(! E2 =F D3!>)! | z6 |!pp! d6 | c3 F3 | (B6 | A3) D3 | z6 |"^dolciss."[Q:1/4=70]"^T""^dim." (G6 | %39
w: Mut- ter Brust!||Schlaf',|Kind- lein,|sü-|* sse,||schlaf'|
w: Him- mels- zelt.||Schlaf',|Kind- lein,|sü-|* sse,||schlaf'|
[Q:1/4=60]"^T"!>(! F3)[Q:1/4=55]"^T" E3 |"_Nach einem alten Reim)"[Q:1/4=50]"^T" D6!>)! | z6 | %42
w: _ nun|ein!||
w: _ nun|ein!||
 !fermata!z6 |] %43
w: |
w: |
V:2
 z2 z z2 f | [Aa]2 z z2 (f | [Aa]2) (F D2 F | A2) (!arpeggio![Bf-b] [Afa]2)!<(! (A | %4
 E2!<)! F!>(! G>FE!>)! |!>(! [DF]2) (!arpeggio![Bf-b] [Afa]2)!>)! z | %6
!ppp! ([^DB]2 [CF] [B,D]2 [CE] | [^DF]2 [E^G] [DF]2) ([G^g] | %8
[M:9/8]!<(! [Aca]2 [CA] [B,D-^G]2!<)! [A,DF]!>(! [^G,C^E]>[A,F][B,EG]!>)! | %9
[M:6/8] [A,CF]3- [A,CF]2)!<(! ([Ff] | !arpeggio![Aca]3-!<)!!>(! [Aca]2) (F-!>)! | %11
 [A,FA]2) (f [Aa]2 f | [Fd]2 f [Aa]2 [Bb] |!<(! [Aca]2) ([CF]!<)! G>F!>(!E | %14
 [DF]2) (!arpeggio![Bf-b]!>)! [Afa]3) | (!arpeggio![DFd]2 B [DF]2 B | [CAc]2 A F2 A) | %17
 ([Bdb]2 g d2 g | !arpeggio![Fda]2"^espress." f d2 f | !arpeggio![Ada]2 [Bb] [Aa]3) | %20
"_dolciss.""_dim." ([B,DG]6 |!>(! [A,C-F]3 [G,CE]3)!>)! | %22
"^espress." (!arpeggio![Fda]2!<(! f d2 f!<)! |!>(! [Ada]2 [Bb] [Ada]2)!>)! (F | %24
 !arpeggio![A,DA]2 F) ([Ada]2"^espress." f | [Fd]2 f [Ada]2 [Bb] |!<(! [Aca]2) ([CF]!<)! G>FF | %27
!>(! [DF]2 [GB]!>)! !arpeggio![FA]3 | [_B,D_B]2) (=f [Bd_b]2 [=Ff] | [D_Bd]2 [_E_e] [=FB=f]3) | %30
!<(! (A2 =F!<)! D2 G |!>(! E2 =F D2)!>)! (F |"^espress." E2 ^F D2) (a |!ppp! [dd']2 b f2 b | %34
 !arpeggio!c'2 a f2 a | !arpeggio!b2 g d2 g | !arpeggio!a2 f d2 f | !arpeggio!a2!>(! b a3)!>)! | %38
"_dolciss.""^dim." (d2 B G2 B | c2 B c3) |!>(! (A2 F D2 F | A2 B d2 a!>)! | %42
!ppp! !fermata![dfd']6) |] %43
V:3
!pp! (D,,2 A,, F,2 A,,) | (D,,2 A,, F,2 A,,) | (D,,2 A,, F,2 A,,) | (D,,2 A,, F,2 A,,) | %4
 (D,,2 A,, F,2 A,,) | (D,,2 A,, F,2 A,,) | (B,,,2 F,, ^D,2 F,,) | (B,,,2 F,, ^D,2 F,,) | %8
[M:9/8] (F,,,2 F,, B,,,2 B,, C,,2 C, |[M:6/8] F,,2 C, A,2 C,) | (E,,2 A,, =G,2 A,,) | %11
!pp!"_*) Für kirchlichen Gebrauch" (D,,2 A,, F,2 A,,) | (D,,2 A,, F,2 A,,) | (D,,2 A,, E,2 A,,) | %14
 (D,,2 A,, F,2 A,,) | (B,,,2 F,,!ppp! D,2 B,,) | (F,,2 C, A,2 C,) | (G,,2 D, B,2 D,) | %18
 (D,,2 A,, F,2 A,,) | (D,,2 A,, F,2 A,,) | (E,,,2 E,, B,,2 E,, | A,,,2 A,,- A,,2 A,,,) | %22
 (D,,2 A,, F,2 A,,) |!p! (D,,2 A,, F,2 A,,) | (D,,2 A,, F,2 A,,) | (D,,2 A,, F,2 A,,) | %26
 (D,,2 A,, E,2 A,,) | (D,,2 A,, F,2 A,,) |!pp! (_B,,,2 =F,, D,2 F,,) | (_B,,,2 =F,, D,2 F,,) | %30
 ([=F,,,=F,,]3 [G,,,G,,]3 | [A,,,A,,-]3 [D,,A,,]3) | ([A,,,A,,-]3 [D,,A,,]3) | (B,,,2 F,, D,2) z | %34
 (F,,2 C, A,2) z | (G,,2 D, B,2) z | (D,,2 A,, F,2 A,, | D,,2 A,, F,2 A,,) | (E,,,2 E,, B,,2 E,, | %39
 A,,,2 A,, G,2 A,,) | D,,2 A,, F,2 A,, | D,,2 A,, F,2 A,, | !fermata![D,,A,,D,]6 |] %43
V:4
 x6 | x6 | x6 | x6 | C3 B,2 C | x6 | x6 | x6 |[M:9/8] x9 |[M:6/8] x6 | x6 | x6 | x6 | x3 B,2 C | %14
 x6 | x6 | x6 | x6 | x6 | x6 | x6 | x6 | x6 | x6 | x6 | x6 | x3 B,2 C | x3 !arpeggio!A,3 | x6 | %29
 x6 | [A,D]3 _B,3 | [G,^C]3 [=F,A,]3 | [G,C]3 [^F,A,]3 | x3 (d2 B | !arpeggio!A2) z (c2 A | %35
 !arpeggio!G2) z (B2 G | !arpeggio!F2) z (A2 F | !arpeggio![Ad]2 B A3) | D6 | [C-F]3 [CE]3 | %40
 [A,D]3 z2 z | [A,D]2 z [DF]2 z | x6 |] %43

